apps/web/public/icons/service.svg

<?xml version="1.0" encoding="UTF-8"?>
<!-- Uploaded to: SVG Repo, www.svgrepo.com, Transformed by: SVG Repo Mixer Tools -->
<svg xmlns="http://www.w3.org/2000/svg" width="800px" height="800px" viewBox="0 0 24 24" id="meteor-icon-kit__solid-headset" fill="none">
  <g id="SVGRepo_bgCarrier" stroke-width="0"></g>
  <g id="SVGRepo_tracerCarrier" stroke-linecap="round" stroke-linejoin="round"></g>
  <g id="SVGRepo_iconCarrier">
    <path fill-rule="evenodd" clip-rule="evenodd" d="M22 9C23.1046 9 24 9.89543 24 11V15C24 16.1046 23.1046 17 22 17V20C22 21.6569 20.6569 23 19 23H18C18 23.5523 17.5523 24 17 24H15C14.4477 24 14 23.5523 14 23V21C14 20.4477 14.4477 20 15 20H17C17.5523 20 18 20.4477 18 21H19C19.5523 21 20 20.5523 20 20V17C18.8954 17 18 16.1046 18 15V11C18 9.89543 18.8954 9 20 9C20 5.13401 16.866 2 13 2H11C7.13401 2 4 5.13401 4 9C5.10457 9 6 9.89543 6 11V15C6 16.1046 5.10457 17 4 17H2C0.89543 17 0 16.1046 0 15V11C0 9.89543 0.89543 9 2 9C2 4.02944 6.02944 0 11 0H13C17.9706 0 22 4.02944 22 9Z" fill="#FFAB0E"></path>
  </g>
</svg>

<svg xmlns="http://www.w3.org/2000/svg" width="800" height="800" fill="none" viewBox="0 0 24 24"><path fill="#ffab0e" fill-rule="evenodd" d="M22 9a2 2 0 0 1 2 2v4a2 2 0 0 1-2 2v3a3 3 0 0 1-3 3h-1a1 1 0 0 1-1 1h-2a1 1 0 0 1-1-1v-2a1 1 0 0 1 1-1h2a1 1 0 0 1 1 1h1a1 1 0 0 0 1-1v-3a2 2 0 0 1-2-2v-4a2 2 0 0 1 2-2 7 7 0 0 0-7-7h-2a7 7 0 0 0-7 7 2 2 0 0 1 2 2v4a2 2 0 0 1-2 2H2a2 2 0 0 1-2-2v-4a2 2 0 0 1 2-2 9 9 0 0 1 9-9h2a9 9 0 0 1 9 9" clip-rule="evenodd"/></svg>
